svgs/duotone/square-b.svg

<svg xmlns="http://www.w3.org/2000/svg" viewBox="0 0 448 512"><!--! Font Awesome Pro 6.4.2 by @fontawesome - https://fontawesome.com License - https://fontawesome.com/license (Commercial License) Copyright 2023 Fonticons, Inc. --><path class="fa-primary" style="fill:var(--fa-primary-color,inherit);opacity:var(--fa-primary-opacity,1);" d="M152 128c-13.3 0-24 10.7-24 24V256 360c0 13.3 10.7 24 24 24H260c42 0 76-34 76-76c0-24.6-11.7-46.4-29.8-60.3c8.7-12.4 13.8-27.4 13.8-43.7c0-42-34-76-76-76H152zm92 104H176V176h68c15.5 0 28 12.5 28 28s-12.5 28-28 28zm-68 48h68 16c15.5 0 28 12.5 28 28s-12.5 28-28 28H176V280z"/><path class="fa-secondary" style="fill:var(--fa-secondary-color,inherit);opacity:var(--fa-secondary-opacity,.4);" d="M64 32C28.7 32 0 60.7 0 96V416c0 35.3 28.7 64 64 64H384c35.3 0 64-28.7 64-64V96c0-35.3-28.7-64-64-64H64zm64 120c0-13.3 10.7-24 24-24h92c42 0 76 34 76 76c0 16.2-5.1 31.3-13.8 43.7C324.3 261.6 336 283.4 336 308c0 42-34 76-76 76H152c-13.3 0-24-10.7-24-24V256 152zm144 52c0-15.5-12.5-28-28-28H176v56h68c15.5 0 28-12.5 28-28zM176 336h84c15.5 0 28-12.5 28-28s-12.5-28-28-28H244 176v56z"/></svg>

<svg xmlns="http://www.w3.org/2000/svg" viewBox="0 0 448 512"><!--! Font Awesome Pro 6.1.1 by @fontawesome - https://fontawesome.com License - https://fontawesome.com/license (Commercial License) Copyright 2022 Fonticons, Inc. --><defs><style>.fa-secondary{opacity:.4}</style></defs><path class="fa-primary" d="M305.9 247.8C314.7 235.4 320 220.3 320 204C320 162.1 285.9 128 244 128H152C138.8 128 128 138.8 128 152v208C128 373.3 138.8 384 152 384h108c41.91 0 76-34.09 76-76C336 283.4 324.1 261.7 305.9 247.8zM176 176h68c15.44 0 28 12.56 28 28S259.4 232 244 232H176V176zM260 336H176V280h84C275.4 280 288 292.6 288 308S275.4 336 260 336z"/><path class="fa-secondary" d="M272 204c0-15.44-12.56-28-28-28H176v56h68C259.4 232 272 219.4 272 204zM260 280H176v56h84C275.4 336 288 323.4 288 308S275.4 280 260 280zM384 32H64C28.65 32 0 60.65 0 96v320c0 35.35 28.65 64 64 64h320c35.35 0 64-28.65 64-64V96C448 60.65 419.3 32 384 32zM260 384H152C138.8 384 128 373.3 128 360v-208C128 138.8 138.8 128 152 128h92C285.9 128 320 162.1 320 204c0 16.35-5.301 31.41-14.12 43.82C324.1 261.7 336 283.4 336 308C336 349.9 301.9 384 260 384z"/></svg>
